X: 17933
T: Household Brigade, The
R: jig
M: 6/8
K: Gmajor
d3|P: A
gdB GBd|g2 f a2 g|f2 e c2 A|E3 Ee^d|
dcA FAc|f3 e3|d^cd ^dec|Bc^c def|
gdB GBd|g2 f a2 g|f2 e c2 A|E3 Ee^d|
dcA FAc|f3 e3|d^cd ^def|g3 g3||
P: B
Bc^c d2 e|d2 B G2 G|e^de c2 e|d3 d3|
Bc^c d2 e|d2 B G2 B|A2 g f2 e|fed cBA|
Bc^c d2 e|d2 B G2 G|e^de c2 e|d3 d3|
egc’ b2 a|dgb a2 g|fed cBA|G3 G2 d||
K: CMaj
P: C
E3- EDC|E3 E3|F3- FED|F3- FEF|
Ged cBA|B^AB f2 B|^A2 B f2 B|A^GA edc|
E3- EDC|E3 E3|F3- FED|F3- FEF|
Ged cBA|B^AB f2 B|B2 f e2 d|c3||

